X:70
T:The Queen of the Fair
M:6/8
L:1/8
Q:100
C:Traditional
K:D
FEF DA,A, |DFA dAF |GFG FGA |BGE EAG |
FEF DA,A, |DFA dAF |GFG EAG |1FDD D2 D :|2
FDD D2 e ::fdf ece |dAG FED |DFA dAF |
GFG E2 e |fdf ece |dAG FED |EFG dAG |1
FDD D2 e :|2FDD D2 A ||Add fdd |add fdd |
Adf g2 e |fdf ecA |Add fdd |add fdd |
EFG dAG |FDD D2 A |Add fdd |add fdd |
Adf g2 e |fdf ecA |afa geg |fdf ecA |
FGA dAG |FDD D2 z ||
